X:31
T:Graies Inn Mask
T:Gray's Inn Mask
T:Mad Tom
M:2/2
L:1/4
P:(AABBCC)3
K:C clef=treble
P:A
[|: "Dm"dd/2e/2fd | "Am"aAA2 | AA/2B/2cA | "Dm"dd2d |
  "F"F>F"G"G>G | A/B/c/B/ A>A | B/c/d/e/fe | d4 :|]
P:B
"Dm"d/e/f/g/aa | "C"gfe2 | "Dm"ddcB | "Am"A4 |
    "Am"cAe2 | "Dm"fdf2 | "C"e>fg2 | "F"f4 |
"F"f2 ed | "C"c4 | "Am"a2gf | e4 :]
    "D"^fffd | ^fgaa | "G"bb "A"ag | "D"^f4 ||
M:6/8
L:1/8
P:C
[|: "Dm"d>ef f>ga|"Am"A3A2A| A>Bc c>de | "G"G3G2G |
   "F"F3d2e | "Dm"f>ga/g/ fe2 |1 "Dm"d3 d2 d :|2  "Dm"d6 |]

